X: 1
T: Miss Hamilton
M: 4/4
L: 1/8
R: hornpipe
K: Gmaj
N: Composed 1706 by Cornelius Lyons
|: B2 d2 cBAG | dc B/c/d D2 z | e2 dc Bd gd |cBAG A2 z |
B/c/d cB AGAF | G/A/BAG ED/E/ G2 |dBAG EF/G/ dc | B2 A2 G2 G2  :|
|: dedc cBAG | dedc cBAG | Bdgd edcB | cBAG A2 z |
B/c/d cB AGAF | G/F/G/A/ BG ED/E/ G2 | dBAG EF/G/ dc | B2 AG G2 G2  : |
|:F2 dc cBAG | E2 FE/F/ G4 |gg/f/ gd edcB | cBAG A4 |
B/c/d cB AGAF | G/F/G/A/ BG ED/E/ G2 | dBAG EF/G/ dc | B2 AG G2 G2  : |
|:B2 AG E2 FG | D2 G2 F2 GF | E2 FE/F/ GG/F/ GD | cBAG A4 | 
B/c/d cB AD FB/A/ | Gc Bg/f/ ed/e/ g2 | dB AG/F/ EF/G/ dc | B2 AG G2 G2  : |
